client/src/assets/avatars/rocket.svg

<?xml version="1.0" encoding="UTF-8" standalone="no"?>
<!-- Created with Inkscape (http://www.inkscape.org/) -->

<svg
   width="256"
   height="256"
   viewBox="0 0 67.733332 67.733333"
   version="1.1"
   id="svg1"
   xml:space="preserve"
   inkscape:version="1.4.3 (0d15f75042, 2025-12-25)"
   sodipodi:docname="rocket.svg"
   xmlns:inkscape="http://www.inkscape.org/namespaces/inkscape"
   xmlns:sodipodi="http://sodipodi.sourceforge.net/DTD/sodipodi-0.dtd"
   xmlns="http://www.w3.org/2000/svg"
   xmlns:svg="http://www.w3.org/2000/svg"><sodipodi:namedview
     id="namedview1"
     pagecolor="#ffffff"
     bordercolor="#000000"
     borderopacity="0.25"
     inkscape:showpageshadow="2"
     inkscape:pageopacity="0.0"
     inkscape:pagecheckerboard="0"
     inkscape:deskcolor="#d1d1d1"
     inkscape:document-units="mm"
     showguides="true"
     inkscape:zoom="3.4569178"
     inkscape:cx="142.46795"
     inkscape:cy="105.58538"
     inkscape:window-width="2544"
     inkscape:window-height="1541"
     inkscape:window-x="0"
     inkscape:window-y="0"
     inkscape:window-maximized="1"
     inkscape:current-layer="layer1"><sodipodi:guide
       position="33.839856,61.9125"
       orientation="1,0"
       id="guide1"
       inkscape:locked="false" /></sodipodi:namedview><defs
     id="defs1" /><g
     inkscape:label="Layer 1"
     inkscape:groupmode="layer"
     id="layer1"><path
       style="fill:currentColor;fill-opacity:1;stroke:#1a1a1a;stroke-width:2;stroke-linecap:round;stroke-linejoin:round;stroke-miterlimit:10;stroke-dasharray:none"
       d="m 47.981937,41.265541 c 4.119862,1.387523 10.25488,7.89935 5.066546,18.510882 -0.671382,-5.260198 -4.938139,-8.522449 -9.155112,-8.253896"
       id="path6"
       sodipodi:nodetypes="ccc" /><path
       style="fill:currentColor;fill-opacity:1;stroke:#1a1a1a;stroke-width:2;stroke-linecap:round;stroke-linejoin:round;stroke-miterlimit:10;stroke-dasharray:none"
       d="m 19.697773,41.265541 c -4.119862,1.387523 -10.25488,7.89935 -5.066546,18.510882 0.671382,-5.260198 4.938139,-8.522449 9.155112,-8.253896"
       id="path12"
       sodipodi:nodetypes="ccc" /><path
       id="path1"
       style="fill:#d9d9d9;fill-opacity:1;stroke:none;stroke-width:2.77;stroke-linecap:round;stroke-linejoin:round;stroke-miterlimit:10"
       d="M 33.839795 5.8208333 C 18.107369 16.25941 14.836875 41.586807 25.055835 53.121305 C 27.339105 53.83659 31.788025 54.07887 33.839795 54.07887 C 35.891565 54.07887 40.340485 53.83659 42.623755 53.121305 C 52.842715 41.586807 49.572221 16.25941 33.839795 5.8208333 z " /><path
       id="path26"
       style="fill:#ffffff;fill-opacity:0.41999999;stroke:none;stroke-width:0.529167;stroke-linecap:round;stroke-linejoin:round;stroke-miterlimit:10;stroke-dasharray:none"
       d="M 25.75295 13.858069 C 25.691214 13.94748 25.646909 14.048137 25.586035 14.138155 C 25.646958 14.048071 25.720102 13.967181 25.781889 13.877706 C 25.771757 13.871488 25.763115 13.864261 25.75295 13.858069 z M 23.77891 17.166394 C 23.654389 17.398071 23.503042 17.613096 23.383586 17.847489 C 23.502939 17.6133 23.654502 17.39787 23.77891 17.166394 z M 23.349996 17.924487 C 18.552334 27.392337 17.871001 38.987806 21.511865 47.446716 C 19.34221 38.60604 22.507295 24.436443 27.125993 19.346106 C 25.448329 19.009218 24.055494 18.53502 23.349996 17.924487 z " /><path
       id="path2"
       style="fill:currentColor;fill-opacity:1;stroke:#1a1a1a;stroke-width:2;stroke-linecap:round;stroke-linejoin:round;stroke-miterlimit:10;stroke-dasharray:none"
       d="M 33.839795 5.8208333 C 33.83269 5.8255493 33.825152 5.8305785 33.818091 5.8353027 C 29.278844 8.8531999 25.778801 13.110978 23.342244 17.918803 C 24.906086 19.282771 29.901632 19.966719 33.839795 19.96674 C 37.777957 19.966719 42.773504 19.282771 44.337345 17.918803 C 41.900788 13.110978 38.400746 8.8531999 33.861499 5.8353027 C 33.854396 5.83058 33.846907 5.8255526 33.839795 5.8208333 z " /><path
       id="path4"
       style="fill:#ababab;fill-opacity:1;stroke:#1a1a1a;stroke-width:2;stroke-linecap:round;stroke-linejoin:round;stroke-miterlimit:10;stroke-dasharray:none"
       d="m 21.699903,47.872205 c 0.733171,1.147103 2.497172,4.279787 3.355932,5.2491 2.283225,0.715271 6.732136,0.957555 8.78396,0.957565 2.051823,-1e-5 6.500734,-0.242294 8.78396,-0.957565 0.85876,-0.969313 2.622761,-4.101997 3.355932,-5.2491 -2.86882,1.345915 -8.955499,1.803501 -12.139892,1.803508 -3.184393,-7e-6 -9.271072,-0.457593 -12.139892,-1.803508 z"
       sodipodi:nodetypes="ccccccc" /><path
       id="path5"
       style="fill:#000000;fill-opacity:0.09877229;stroke:none;stroke-width:2.77;stroke-linecap:round;stroke-linejoin:round;stroke-miterlimit:10"
       d="M 45.8587 21.339783 C 48.271854 39.244445 43.368402 48.429506 37.958923 53.884566 C 39.672056 53.735907 41.43923 53.492384 42.623755 53.121305 C 49.204067 45.693877 50.190751 32.547435 45.8587 21.339783 z " /><circle
       style="fill:#ade2ff;fill-opacity:1;stroke:none;stroke-width:2;stroke-linecap:round;stroke-linejoin:round;stroke-miterlimit:10;stroke-dasharray:none"
       id="path18"
       cx="33.839855"
       cy="29.949776"
       r="5.4562874" /><path
       style="fill:#ffffff;fill-opacity:0.42116001;stroke:none;stroke-width:2.77;stroke-linecap:round;stroke-linejoin:round;stroke-miterlimit:10"
       d="m 27.121243,16.204653 c -0.459724,1.235098 -1.97605,0.313031 -1.158972,-1.021494 0.920983,-1.504231 2.886568,-4.013113 4.292242,-5.2118849 1.609271,-1.3724017 2.819776,-1.9784742 0.463179,0.4551589 -1.479085,1.527435 -2.602326,3.107402 -3.596449,5.77822 z"
       id="path19"
       sodipodi:nodetypes="sssss" /><path
       id="path20"
       style="fill:#000000;fill-opacity:0.1;stroke:none;stroke-width:2.77;stroke-linecap:round;stroke-linejoin:round;stroke-miterlimit:10"
       d="M 43.090393 15.66261 C 40.237418 18.038578 38.059082 18.649279 29.720667 19.739364 C 31.10046 19.890822 32.52875 19.966733 33.839795 19.96674 C 37.777957 19.966719 42.773504 19.282771 44.337345 17.918803 C 43.948645 17.151818 43.533125 16.398798 43.090393 15.66261 z " /><path
       id="rect22"
       style="fill:#ffffff;fill-opacity:0.476719;stroke:none;stroke-width:2.77;stroke-linecap:round;stroke-linejoin:round;stroke-miterlimit:10"
       d="m 36.438207,25.569624 -6.832835,6.832835 c 0.227233,0.623963 0.56808,1.192636 0.996827,1.682324 l 7.518332,-7.518332 C 37.630843,26.137704 37.06217,25.796857 36.438207,25.569624 Z" /><path
       id="rect23"
       style="fill:#ffffff;fill-opacity:0.476719;stroke:none;stroke-width:2.77;stroke-linecap:round;stroke-linejoin:round;stroke-miterlimit:10"
       d="m 34.72886,25.123674 -5.736754,5.736753 c 0.02357,0.296977 0.07129,0.587135 0.141384,0.868297 l 6.463666,-6.463667 c -0.281161,-0.07009 -0.571319,-0.117812 -0.868296,-0.141383 z" /><path
       id="path25"
       style="fill:none;fill-opacity:1;stroke:#1a1a1a;stroke-width:2;stroke-linecap:round;stroke-linejoin:round;stroke-miterlimit:10;stroke-dasharray:none"
       d="M 33.839795 5.8208333 C 18.107369 16.25941 14.836875 41.586807 25.055835 53.121305 C 27.339105 53.83659 31.788025 54.07887 33.839795 54.07887 C 35.891565 54.07887 40.340485 53.83659 42.623755 53.121305 C 52.842715 41.586807 49.572221 16.25941 33.839795 5.8208333 z " /><path
       id="rect6"
       style="fill:currentColor;fill-opacity:1;stroke:#1a1a1a;stroke-width:2;stroke-linecap:round;stroke-linejoin:round;stroke-miterlimit:10;stroke-dasharray:none"
       d="m 31.90595,43.083501 1.933846,19.051971 1.933845,-19.051971 z"
       sodipodi:nodetypes="cccc" /><circle
       style="fill:none;fill-opacity:1;stroke:#1a1a1a;stroke-width:2;stroke-linecap:round;stroke-linejoin:round;stroke-miterlimit:10;stroke-dasharray:none"
       id="circle27"
       cx="33.839855"
       cy="29.949776"
       r="5.4562874" /></g></svg>

<?xml version="1.0" encoding="UTF-8"?>
<!-- Created with Inkscape (http://www.inkscape.org/) -->
<svg id="svg1" width="256" height="256" version="1.1" viewBox="0 0 67.733 67.733" xml:space="preserve" xmlns="http://www.w3.org/2000/svg"><g id="layer1"><path id="path6" d="m47.982 41.266c4.1199 1.3875 10.255 7.8994 5.0665 18.511-0.67138-5.2602-4.9381-8.5224-9.1551-8.2539" fill="currentColor" stroke="#1a1a1a" stroke-linecap="round" stroke-linejoin="round" stroke-miterlimit="10" stroke-width="2"/><path id="path12" d="m19.698 41.266c-4.1199 1.3875-10.255 7.8994-5.0665 18.511 0.67138-5.2602 4.9381-8.5224 9.1551-8.2539" fill="currentColor" stroke="#1a1a1a" stroke-linecap="round" stroke-linejoin="round" stroke-miterlimit="10" stroke-width="2"/><path id="path1" d="m33.84 5.8208c-15.732 10.439-19.003 35.766-8.784 47.3 2.2833 0.71528 6.7322 0.95756 8.784 0.95756s6.5007-0.24228 8.784-0.95756c10.219-11.534 6.9485-36.862-8.784-47.3z" fill="#d9d9d9"/><path id="path26" d="m25.753 13.858c-0.061736 0.089411-0.10604 0.19007-0.16692 0.28009 0.060923-0.090084 0.13407-0.17097 0.19585-0.26045-0.010132-0.006218-0.018774-0.013445-0.028939-0.019637zm-1.974 3.3083c-0.12452 0.23168-0.27587 0.4467-0.39532 0.6811 0.11935-0.23419 0.27092-0.44962 0.39532-0.6811zm-0.42891 0.75809c-4.7977 9.4678-5.479 21.063-1.8381 29.522-2.1697-8.8407 0.99543-23.01 5.6141-28.101-1.6777-0.33689-3.0705-0.81109-3.776-1.4216z" fill="#fff" fill-opacity=".42"/><path id="path2" d="m33.84 5.8208c-0.007105 0.004716-0.014643 0.0097452-0.021704 0.014469-4.5392 3.0179-8.0393 7.2757-10.476 12.084 1.5638 1.364 6.5594 2.0479 10.498 2.0479 3.9382-2.1e-5 8.9337-0.68397 10.498-2.0479-2.4366-4.8078-5.9366-9.0656-10.476-12.084-0.007103-0.0047227-0.014592-0.0097501-0.021704-0.014469z" fill="currentColor" stroke="#1a1a1a" stroke-linecap="round" stroke-linejoin="round" stroke-miterlimit="10" stroke-width="2"/><path id="path4" d="m21.7 47.872c0.73317 1.1471 2.4972 4.2798 3.3559 5.2491 2.2832 0.71527 6.7321 0.95756 8.784 0.95756 2.0518-1e-5 6.5007-0.24229 8.784-0.95756 0.85876-0.96931 2.6228-4.102 3.3559-5.2491-2.8688 1.3459-8.9555 1.8035-12.14 1.8035-3.1844-7e-6 -9.2711-0.45759-12.14-1.8035z" fill="#ababab" stroke="#1a1a1a" stroke-linecap="round" stroke-linejoin="round" stroke-miterlimit="10" stroke-width="2"/><path id="path5" d="m45.859 21.34c2.4132 17.905-2.4903 27.09-7.8998 32.545 1.7131-0.14866 3.4803-0.39218 4.6648-0.76326 6.5803-7.4274 7.567-20.574 3.2349-31.782z" fill-opacity=".098772"/><circle id="path18" cx="33.84" cy="29.95" r="5.4563" fill="#ade2ff"/><path id="path19" d="m27.121 16.205c-0.45972 1.2351-1.976 0.31303-1.159-1.0215 0.92098-1.5042 2.8866-4.0131 4.2922-5.2119 1.6093-1.3724 2.8198-1.9785 0.46318 0.45516-1.4791 1.5274-2.6023 3.1074-3.5964 5.7782z" fill="#fff" fill-opacity=".42116"/><path id="path20" d="m43.09 15.663c-2.853 2.376-5.0313 2.9867-13.37 4.0768 1.3798 0.15146 2.8081 0.22737 4.1191 0.22738 3.9382-2.1e-5 8.9337-0.68397 10.498-2.0479-0.3887-0.76698-0.80422-1.52-1.247-2.2562z" fill-opacity=".1"/><path id="rect22" d="m36.438 25.57-6.8328 6.8328c0.22723 0.62396 0.56808 1.1926 0.99683 1.6823l7.5183-7.5183c-0.48969-0.42875-1.0584-0.76959-1.6823-0.99683z" fill="#fff" fill-opacity=".47672"/><path id="rect23" d="m34.729 25.124-5.7368 5.7368c0.02357 0.29698 0.07129 0.58714 0.14138 0.8683l6.4637-6.4637c-0.28116-0.07009-0.57132-0.11781-0.8683-0.14138z" fill="#fff" fill-opacity=".47672"/><path id="path25" d="m33.84 5.8208c-15.732 10.439-19.003 35.766-8.784 47.3 2.2833 0.71528 6.7322 0.95756 8.784 0.95756s6.5007-0.24228 8.784-0.95756c10.219-11.534 6.9485-36.862-8.784-47.3z" fill="none" stroke="#1a1a1a" stroke-linecap="round" stroke-linejoin="round" stroke-miterlimit="10" stroke-width="2"/><path id="rect6" d="m31.906 43.084 1.9338 19.052 1.9338-19.052z" fill="currentColor" stroke="#1a1a1a" stroke-linecap="round" stroke-linejoin="round" stroke-miterlimit="10" stroke-width="2"/><circle id="circle27" cx="33.84" cy="29.95" r="5.4563" fill="none" stroke="#1a1a1a" stroke-linecap="round" stroke-linejoin="round" stroke-miterlimit="10" stroke-width="2"/></g></svg>
